resources/img/scalable/actions/flypie-opacity-symbolic.svg

<?xml version="1.0" encoding="UTF-8" standalone="no"?>
<svg
   xmlns:dc="http://purl.org/dc/elements/1.1/"
   xmlns:cc="http://creativecommons.org/ns#"
   xmlns:rdf="http://www.w3.org/1999/02/22-rdf-syntax-ns#"
   xmlns:svg="http://www.w3.org/2000/svg"
   xmlns="http://www.w3.org/2000/svg"
   xmlns:sodipodi="http://sodipodi.sourceforge.net/DTD/sodipodi-0.dtd"
   xmlns:inkscape="http://www.inkscape.org/namespaces/inkscape"
   width="4.2333336mm"
   height="4.2333336mm"
   version="1.1"
   viewBox="0 0 4.2333334 4.2333334"
   id="svg14"
   sodipodi:docname="flypie-opacity-symbolic.svg"
   inkscape:version="1.0.2 (e86c870879, 2021-01-15)">
  <defs
     id="defs18" />
  <sodipodi:namedview
     pagecolor="#ffffff"
     bordercolor="#666666"
     borderopacity="1"
     objecttolerance="10"
     gridtolerance="10"
     guidetolerance="10"
     inkscape:pageopacity="0"
     inkscape:pageshadow="2"
     inkscape:window-width="960"
     inkscape:window-height="1131"
     id="namedview16"
     showgrid="false"
     inkscape:zoom="12.959127"
     inkscape:cx="11.869331"
     inkscape:cy="19.252497"
     inkscape:window-x="960"
     inkscape:window-y="32"
     inkscape:window-maximized="0"
     inkscape:current-layer="svg14"
     inkscape:document-rotation="0"
     fit-margin-top="0"
     fit-margin-left="0"
     fit-margin-right="0"
     fit-margin-bottom="0" />
  <metadata
     id="metadata2">
    <rdf:RDF>
      <cc:Work
         rdf:about="">
        <dc:format>image/svg+xml</dc:format>
        <dc:type
           rdf:resource="http://purl.org/dc/dcmitype/StillImage" />
        <dc:title></dc:title>
      </cc:Work>
    </rdf:RDF>
  </metadata>
  <path
     sodipodi:nodetypes="ccccccccccccccccccccccccc"
     inkscape:connector-curvature="0"
     style="color:#000000;font-style:normal;font-variant:normal;font-weight:normal;font-stretch:normal;font-size:medium;line-height:normal;font-family:sans-serif;font-variant-ligatures:normal;font-variant-position:normal;font-variant-caps:normal;font-variant-numeric:normal;font-variant-alternates:normal;font-feature-settings:normal;text-indent:0;text-align:start;text-decoration:none;text-decoration-line:none;text-decoration-style:solid;text-decoration-color:#000000;letter-spacing:normal;word-spacing:normal;text-transform:none;writing-mode:lr-tb;direction:ltr;text-orientation:mixed;dominant-baseline:auto;baseline-shift:baseline;text-anchor:start;white-space:normal;shape-padding:0;clip-rule:nonzero;display:inline;overflow:visible;visibility:visible;isolation:auto;mix-blend-mode:normal;color-interpolation:sRGB;color-interpolation-filters:linearRGB;solid-color:#000000;solid-opacity:1;vector-effect:none;fill:#2e3436;fill-opacity:1;fill-rule:evenodd;stroke:none;stroke-width:0.264583px;stroke-linecap:round;stroke-linejoin:miter;stroke-miterlimit:4;stroke-dasharray:none;stroke-dashoffset:0;stroke-opacity:1;color-rendering:auto;image-rendering:auto;shape-rendering:auto;text-rendering:auto;enable-background:accumulate"
     d="m 0.58600992,1.1926177 c -0.0608886,0.064414 -0.11767079,0.1325888 -0.1700133,0.204122 L 1.0614344,2.0421783 c 0.00786,-0.1044982 0.031197,-0.2072494 0.069247,-0.304891 z m -0.33124509,0.462504 c -0.0449289,0.082723 -0.084291,0.1683518 -0.1178216,0.2563151 l 1.74009037,1.736032 c 0.1073415,0.056624 0.3819631,0.031911 0.368308,0.031304 L 1.6872348,3.0875949 C 1.4477234,2.9811758 1.256218,2.7896712 1.1497999,2.55016 Z M 1.593702,2.2003081 C 1.628296,2.4299045 1.8085198,2.6101299 2.0381173,2.6447255 Z M 0.13487684,2.3289824 c 0.20676128,0.5566531 0.6378363,1.0008557 1.18803996,1.2242148 -0.00439,-0.028537 -0.018018,-0.054852 -0.038756,-0.074931 z M 2.5001062,3.1067129 c -0.097451,0.038176 -0.200025,0.061687 -0.304374,0.069763 l 0.4599199,0.4599205 c 0.08664,-0.022998 0.1717331,-0.051478 0.2547646,-0.085266 -0.00482,-0.027799 -0.018388,-0.053329 -0.038756,-0.072864 z"
     id="path3244" />
  <path
     style="vector-effect:none;fill:#2e3436;fill-opacity:1;stroke:none;stroke-width:0.264583;stroke-linecap:round;stroke-linejoin:round;stroke-miterlimit:4;stroke-dasharray:none;stroke-opacity:1"
     d="M 2.1166668,0.52909244 C 1.7121877,0.53052119 1.3165827,0.64779404 0.97668571,0.86705636 L 1.4257524,1.3161244 C 1.6176917,1.1501137 1.8628943,1.0585988 2.1166668,1.0582591 2.7011684,1.0582591 3.175,1.532091 3.175,2.1165924 3.1744709,2.3702526 3.0827001,2.6152578 2.9166186,2.8069895 l 0.468704,0.4687051 C 3.7680741,2.9892022 4.0425608,2.5815698 4.1640866,2.1191763 3.9239693,1.1843359 3.0818508,0.53032355 2.1166668,0.52909244 Z m 0,1.05833326 c -0.1135539,7.17e-5 -0.224073,0.03667 -0.3152273,0.1043863 l 0.3178122,0.3178101 c -0.00159,-0.00834 -0.00265,-0.016817 -0.00265,-0.025321 0,-0.073063 0.05923,-0.1322917 0.1322917,-0.1322917 0.073062,0 0.1322916,0.059229 0.1322916,0.1322917 0,0.073063 -0.05923,0.1322917 -0.1322916,0.1322917 -0.00849,-4.56e-5 -0.016986,-8.996e-4 -0.025321,-0.00259 l 0.3172937,0.3172934 c 0.067855,-0.09094 0.1046321,-0.2012659 0.1049628,-0.3147012 0,-0.2922506 -0.2369158,-0.5291667 -0.5291666,-0.5291667 z"
     id="path3216"
     inkscape:connector-curvature="0"
     sodipodi:nodetypes="cccccccccccccssccccc" />
  <path
     style="fill:none;fill-rule:evenodd;stroke:#2e3436;stroke-width:0.264583px;stroke-linecap:round;stroke-linejoin:miter;stroke-opacity:1"
     d="M 0.39687518,0.39680078 3.8364583,3.8363839"
     id="path3242"
     inkscape:connector-curvature="0"
     sodipodi:nodetypes="cc" />
</svg>

<svg xmlns="http://www.w3.org/2000/svg" width="16" height="16" viewBox="0 0 4.233 4.233"><path style="color:#000;font-style:normal;font-variant:normal;font-weight:400;font-stretch:normal;font-size:medium;line-height:normal;font-family:sans-serif;font-variant-ligatures:normal;font-variant-position:normal;font-variant-caps:normal;font-variant-numeric:normal;font-variant-alternates:normal;font-feature-settings:normal;text-indent:0;text-align:start;text-decoration:none;text-decoration-line:none;text-decoration-style:solid;text-decoration-color:#000;letter-spacing:normal;word-spacing:normal;text-transform:none;writing-mode:lr-tb;direction:ltr;text-orientation:mixed;dominant-baseline:auto;baseline-shift:baseline;text-anchor:start;white-space:normal;shape-padding:0;clip-rule:nonzero;display:inline;overflow:visible;visibility:visible;isolation:auto;mix-blend-mode:normal;color-interpolation:sRGB;color-interpolation-filters:linearRGB;solid-color:#000;solid-opacity:1;vector-effect:none;fill:#2e3436;fill-opacity:1;fill-rule:evenodd;stroke:none;stroke-width:.264583px;stroke-linecap:round;stroke-linejoin:miter;stroke-miterlimit:4;stroke-dasharray:none;stroke-dashoffset:0;stroke-opacity:1;color-rendering:auto;image-rendering:auto;shape-rendering:auto;text-rendering:auto;enable-background:accumulate" d="M.586 1.193c-.06.064-.118.132-.17.204l.645.645c.008-.104.032-.207.07-.305zm-.331.462a2.117 2.117 0 0 0-.118.256l1.74 1.736c.107.057.382.032.368.032l-.558-.591a1.058 1.058 0 0 1-.537-.538Zm1.339.545a.53.53 0 0 0 .444.445Zm-1.46.129c.208.557.639 1 1.189 1.224a.132.132 0 0 0-.039-.075zm2.366.778c-.097.038-.2.061-.304.07l.46.46c.086-.024.171-.052.254-.086a.132.132 0 0 0-.038-.073z"/><path style="vector-effect:none;fill:#2e3436;fill-opacity:1;stroke:none;stroke-width:.264583;stroke-linecap:round;stroke-linejoin:round;stroke-miterlimit:4;stroke-dasharray:none;stroke-opacity:1" d="M2.117.53c-.405 0-.8.118-1.14.337l.449.45a1.058 1.058 0 0 1 1.749.8c0 .253-.092.498-.258.69l.468.469c.383-.287.658-.694.78-1.157A2.117 2.117 0 0 0 2.116.53Zm0 1.057a.53.53 0 0 0-.316.105l.318.318a.132.132 0 1 1 .104.104l.318.317a.529.529 0 0 0-.424-.844z"/><path style="fill:none;fill-rule:evenodd;stroke:#2e3436;stroke-width:.264583px;stroke-linecap:round;stroke-linejoin:miter;stroke-opacity:1" d="m.397.397 3.44 3.44"/></svg>
